X:1
T: The Bridge of Garry
C:
R:Strathspey
Q: 128
K:A
M:4/4
L:1/16
|:a2|A3A e3A c3A e3A|Bf3 f3e fB3 B3a|A3A e3A c3A e3A|E3F A3B cA3 A3a|
A3A e3A c3A e3A|Bf3 f3e fB3 B3a|A3A e3A c3A e3A|E3F A3B cA3 A3g|
a4 ea3 c3A e3c|Bf3 f3e fB3 B3g|a3e ea3 c3A e3c|E3F A3B cA3 A3g|
a4 ea3 c3A e3c|Bf3 f3e fB3 B3g|a3f b3g a3f e3d|ce3 B3d cA3 A2:|
